X: 19866
T: Jessie Smith
R: strathspey
M: 4/4
K: Eminor
dB|A<FF>E D>E G/F/E/D/|A<FF>A B2 B<d|A<FF>E D>E G/F/E/D/|F<BA>F E2 d>B|
A<FF>E D>E G/F/E/D/|A<FF>A B2 B<d|A<FF>E D>E G/F/E/D/|F<BA>F E2 E||
A|d2 f>dB>e d/c/B/A/|d>ef<d B2 B>A|d2 f>dB>e d/c/B/A/|d>BA<F E2 E>A|
d2 f>dB>e d/c/B/A/|d>ef<d B2 B>g|(3fed (3cde (3dcB (3ABc|d>BA<F E2 E||

